public/companies/aave-2030-header-light.svg

<svg width="145" height="24" viewBox="0 0 145 24" fill="none" xmlns="http://www.w3.org/2000/svg">
<path d="M132.194 19.069C129.103 19.069 126.356 16.8293 125.648 13.7371H144.001C144.001 13.7371 144.1 12.6166 144.1 12.2203C144.1 5.65721 138.76 0.316406 132.197 0.316406C125.634 0.316406 120.294 5.6561 120.294 12.2203C120.294 18.7845 125.604 24.0002 132.197 24.0002C138.79 24.0002 142.64 19.1432 143.601 15.6269H138.006C138.006 15.6269 136.227 19.069 132.194 19.069ZM132.197 5.24536C135.161 5.24536 137.734 7.20276 138.615 10.1201H125.779C126.657 7.20276 129.231 5.24536 132.197 5.24536Z" fill="white" style="fill:white;fill-opacity:1;"/>
<path d="M62.1602 24.0002C55.5971 24.0002 50.449 18.7158 50.449 12.2203C50.449 5.72474 55.7887 0.316406 62.3517 0.316406C68.9148 0.316406 74.2545 5.86646 74.2545 12.1572C74.2545 14.8375 74.2545 23.4101 74.2545 23.4101H69.6333V19.6547L69.2968 19.5661C68.483 21.5611 65.5347 24.0002 62.1591 24.0002H62.1602ZM62.3517 5.24536C58.6451 5.24536 55.6281 8.3575 55.6281 12.1837C55.6281 16.01 58.644 19.0701 62.3517 19.0701C66.0595 19.0701 69.0754 15.9812 69.0754 12.1837C69.0754 8.38629 66.0595 5.24536 62.3517 5.24536Z" fill="white" style="fill:white;fill-opacity:1;"/>
<path d="M87.4413 24.0002C80.8782 24.0002 75.73 18.7158 75.73 12.2203C75.73 5.72474 81.0697 0.316406 87.6328 0.316406C94.1959 0.316406 99.5356 5.86646 99.5356 12.1572C99.5356 14.8375 99.5356 23.4101 99.5356 23.4101H94.9144V19.6547L94.5778 19.5661C93.7641 21.5611 90.8158 24.0002 87.4402 24.0002H87.4413ZM87.6328 5.24536C83.9261 5.24536 80.9092 8.3575 80.9092 12.1837C80.9092 16.01 83.925 19.0701 87.6328 19.0701C91.3406 19.0701 94.3564 15.9812 94.3564 12.1837C94.3564 8.38629 91.3406 5.24536 87.6328 5.24536Z" fill="white" style="fill:white;fill-opacity:1;"/>
<path d="M107.293 23.4073L97.8084 0.908203H102.998L109.949 17.482L116.902 0.908203H122.09L112.606 23.4073H107.293Z" fill="white" style="fill:white;fill-opacity:1;"/>
<path d="M16.8736 23.9646C19.4546 23.9646 21.5468 21.8723 21.5468 19.2914C21.5468 16.7104 19.4546 14.6182 16.8736 14.6182C14.2927 14.6182 12.2004 16.7104 12.2004 19.2914C12.2004 21.8723 14.2927 23.9646 16.8736 23.9646Z" fill="white" style="fill:white;fill-opacity:1;"/>
<path d="M29.088 23.9646C31.6689 23.9646 33.7612 21.8723 33.7612 19.2914C33.7612 16.7104 31.6689 14.6182 29.088 14.6182C26.5071 14.6182 24.4148 16.7104 24.4148 19.2914C24.4148 21.8723 26.5071 23.9646 29.088 23.9646Z" fill="white" style="fill:white;fill-opacity:1;"/>
<path d="M22.973 0C10.2841 0 -0.00332059 10.4834 8.04028e-07 23.4114H5.8689C5.8689 13.7229 13.466 5.8678 22.973 5.8678C32.4799 5.8678 40.077 13.7229 40.077 23.4114H45.9459C45.9482 10.4834 35.6607 0 22.973 0Z" fill="white" style="fill:white;fill-opacity:1;"/>
</svg>

<svg viewBox="0 0 145 24" fill="none" xmlns="http://www.w3.org/2000/svg"><path d="M132.194 19.069c-3.091 0-5.838-2.24-6.546-5.332h18.353s.099-1.12.099-1.517c0-6.563-5.34-11.904-11.903-11.904s-11.903 5.34-11.903 11.904c0 6.565 5.31 11.78 11.903 11.78s10.443-4.857 11.404-8.373h-5.595s-1.779 3.442-5.812 3.442m.003-13.824c2.964 0 5.537 1.958 6.418 4.875h-12.836c.878-2.917 3.452-4.875 6.418-4.875M62.16 24c-6.563 0-11.711-5.284-11.711-11.78S55.789.316 62.352.316s11.902 5.55 11.902 11.841V23.41h-4.62v-3.755l-.337-.089C68.483 21.561 65.535 24 62.159 24zm.192-18.755c-3.707 0-6.724 3.113-6.724 6.939s3.016 6.886 6.724 6.886 6.723-3.089 6.723-6.886-3.016-6.939-6.723-6.939M87.441 24c-6.563 0-11.711-5.284-11.711-11.78S81.07.316 87.633.316s11.903 5.55 11.903 11.841V23.41h-4.622v-3.755l-.336-.089C93.764 21.561 90.816 24 87.44 24zm.192-18.755c-3.707 0-6.724 3.113-6.724 6.939s3.016 6.886 6.724 6.886 6.723-3.089 6.723-6.886-3.015-6.939-6.723-6.939m19.66 18.162L97.808.908h5.19l6.951 16.574L116.902.908h5.188l-9.484 22.5zm-90.419.558a4.673 4.673 0 1 0 0-9.347 4.673 4.673 0 0 0 0 9.347m12.214 0a4.673 4.673 0 1 0 0-9.347 4.673 4.673 0 0 0 0 9.347" fill="#fff" style="fill:#fff;fill-opacity:1"/><path d="M22.973 0C10.284 0-.003 10.483 0 23.411h5.869c0-9.688 7.597-17.543 17.104-17.543s17.104 7.855 17.104 17.543h5.869C45.948 10.483 35.66 0 22.973 0" fill="#fff" style="fill:#fff;fill-opacity:1"/></svg>
